32x32/apps/catia.svg

<svg height="32" width="32" xmlns="http://www.w3.org/2000/svg"><rect height="29" opacity=".2" rx="1.45" transform="matrix(0 -1 -1 0 0 0)" width="29" x="-31" y="-30"/><rect fill="#752828" height="29" rx="1.45" transform="matrix(0 -1 -1 0 0 0)" width="29" x="-30" y="-30"/><path d="m9 16.5c5.305 0 7.695 10 13 10" fill="none" opacity=".2" stroke="#000" stroke-width="1.5"/><path d="m9 15.5c5.305 0 7.695 10 13 10" fill="none" stroke="#6c7f94" stroke-width="1.5"/><path d="m9 6.5c5.305 0 7.695 10 13 10" fill="none" opacity=".2" stroke="#000" stroke-width="1.5"/><g fill-rule="evenodd"><path d="m7.012 15-.024.027-1.488 1.473 1.512 1.5h2.988v-3z" opacity=".2"/><path d="m7.012 14-.024.027-1.488 1.473 1.512 1.5h2.988v-3z" fill="#4c66cc"/><path d="m21 25v3h3.017l1.483-1.5-1.483-1.5h-.034z" opacity=".2"/><path d="m21 24v3h3.017l1.483-1.5-1.483-1.5h-.034z" fill="#4c66cc"/></g><path d="m9 5.5c5.305 0 7.695 10 13 10" fill="none" stroke="#6c7f94" stroke-width="1.5"/><path d="m7.012 5-.024.027-1.488 1.473 1.512 1.5h2.988v-3z" fill-rule="evenodd" opacity=".2"/><path d="m7.012 4-.024.027-1.488 1.473 1.512 1.5h2.988v-3z" fill="#4c66cc" fill-rule="evenodd"/><path d="m21 15v3h3.017l1.483-1.5-1.483-1.5h-.034z" fill-rule="evenodd" opacity=".2"/><path d="m21 14v3h3.017l1.483-1.5-1.483-1.5h-.034z" fill="#4c66cc" fill-rule="evenodd"/><path d="m2.45 1c-.805 0-1.45.646-1.45 1.45v1c0-.805.646-1.45 1.45-1.45h26.1c.804 0 1.45.646 1.45 1.45v-1c0-.805-.646-1.45-1.45-1.45z" fill="#f4f4f7" opacity=".1"/></svg>

<svg height="32" width="32" xmlns="http://www.w3.org/2000/svg">
    <rect height="29" opacity=".2" rx="1.45" transform="matrix(0 -1 -1 0 0 0)" width="29" x="-31" y="-30"/>
    <rect fill="#752828" height="29" rx="1.45" transform="matrix(0 -1 -1 0 0 0)" width="29" x="-30" y="-30"/>
    <g fill="none" stroke-width="1.5">
        <path d="M9 16.5c5.305 0 7.695 10 13 10" opacity=".2" stroke="#000"/>
        <path d="M9 15.5c5.305 0 7.695 10 13 10" stroke="#6c7f94"/>
        <path d="M9 6.5c5.305 0 7.695 10 13 10" opacity=".2" stroke="#000"/>
    </g>
    <g fill-rule="evenodd">
        <path d="m7.012 15-.024.027L5.5 16.5 7.012 18H10v-3z" opacity=".2"/>
        <path d="m7.012 14-.024.027L5.5 15.5 7.012 17H10v-3z" fill="#4c66cc"/>
        <path d="M21 25v3h3.017l1.483-1.5-1.483-1.5h-.034z" opacity=".2"/>
        <path d="M21 24v3h3.017l1.483-1.5-1.483-1.5h-.034z" fill="#4c66cc"/>
    </g>
    <path d="M9 5.5c5.305 0 7.695 10 13 10" fill="none" stroke="#6c7f94" stroke-width="1.5"/>
    <g fill-rule="evenodd">
        <path d="m7.012 5-.024.027L5.5 6.5 7.012 8H10V5z" opacity=".2"/>
        <path d="m7.012 4-.024.027L5.5 5.5 7.012 7H10V4z" fill="#4c66cc"/>
        <path d="M21 15v3h3.017l1.483-1.5-1.483-1.5h-.034z" opacity=".2"/>
        <path d="M21 14v3h3.017l1.483-1.5-1.483-1.5h-.034z" fill="#4c66cc"/>
    </g>
    <path d="M2.45 1C1.645 1 1 1.646 1 2.45v1C1 2.645 1.646 2 2.45 2h26.1c.804 0 1.45.646 1.45 1.45v-1C30 1.645 29.354 1 28.55 1z" fill="#f4f4f7" opacity=".1"/>
</svg>
